src/2-landmarks/stop--default.svg

<svg width="1300" height="1000" viewBox="0 0 1300 1000" fill="none" xmlns="http://www.w3.org/2000/svg"><path d="M0 900h595a5 5 0 0 1 5 5v95H0V900Zm0-211v-7h33v-8c0-8.284-6.716-15-15-15H0v-7h20c11.046 0 20 8.954 20 20v10h140c11.046 0 20 8.954 20 20v20c0 11.046-8.954 20-20 20h-10v158h-7V742H0v-7h178c8.284 0 15-6.716 15-15v-16c0-8.284-6.716-15-15-15H0Z" fill="#000"/></svg>

<svg width="1300" height="1000" viewBox="0 0 1300 1000" fill="none" xmlns="http://www.w3.org/2000/svg">
<g clip-path="url(#clip0_179_1307)">
<path d="M0 900.5H687.739C690.5 900.5 695.5 902.738 695.5 905.5V1000.5H0V900.5Z" fill="black"/>
<path d="M0 689V682H33V674C33 665.716 26.2843 659 18 659H0V652H20C31.0457 652 40 660.954 40 672V682H180C191.046 682 200 690.954 200 702V722C200 733.046 191.046 742 180 742H170V900.5H163V742H0V735H178C186.284 735 193 728.284 193 720V704C193 695.716 186.284 689 178 689H0Z" fill="black"/>
</g>
<defs>
<clipPath id="clip0_179_1307">
<rect width="1300" height="1000" fill="white"/>
</clipPath>
</defs>
</svg>
